images/icons/linkedIn.svg

<svg width="38" height="38" viewBox="0 0 38 38" fill="none" xmlns="http://www.w3.org/2000/svg">
<path d="M35.2857 0H2.7058C1.21295 0 0 1.22991 0 2.73973V35.2603C0 36.7701 1.21295 38 2.7058 38H35.2857C36.7786 38 38 36.7701 38 35.2603V2.73973C38 1.22991 36.7786 0 35.2857 0ZM11.4848 32.5714H5.85268V14.4366H11.4933V32.5714H11.4848ZM8.66875 11.9598C6.86205 11.9598 5.40312 10.4924 5.40312 8.6942C5.40312 6.89598 6.86205 5.42857 8.66875 5.42857C10.467 5.42857 11.9344 6.89598 11.9344 8.6942C11.9344 10.5009 10.4754 11.9598 8.66875 11.9598ZM32.5969 32.5714H26.9647V23.75C26.9647 21.6464 26.9223 18.9406 24.0384 18.9406C21.1036 18.9406 20.654 21.2308 20.654 23.5973V32.5714H15.0219V14.4366H20.425V16.9134H20.5013C21.2562 15.4884 23.0969 13.9871 25.8366 13.9871C31.5366 13.9871 32.5969 17.7446 32.5969 22.6304V32.5714Z" fill="white"/>
</svg>

<svg xmlns="http://www.w3.org/2000/svg" width="38" height="38" fill="none"><path fill="#fff" d="M35.286 0H2.706C1.213 0 0 1.23 0 2.74v32.52C0 36.77 1.213 38 2.706 38h32.58C36.779 38 38 36.77 38 35.26V2.74C38 1.23 36.779 0 35.286 0ZM11.485 32.571H5.853V14.437h5.64V32.57h-.008ZM8.669 11.96a3.267 3.267 0 0 1-3.266-3.266A3.267 3.267 0 0 1 8.67 5.43a3.272 3.272 0 0 1 3.265 3.265A3.262 3.262 0 0 1 8.67 11.96ZM32.597 32.57h-5.632V23.75c0-2.104-.043-4.81-2.927-4.81-2.934 0-3.384 2.29-3.384 4.657v8.974h-5.632V14.437h5.403v2.476h.076c.755-1.425 2.596-2.926 5.336-2.926 5.7 0 6.76 3.758 6.76 8.643v9.941Z"/></svg>
